X:1
T:Labor On
T:Labor On
T:William Howard Doane
T:Christopher Ruby Blackall, 1870
T:Public Domain Courtesy of the Cyber Hymnal™
T:Public Domain Courtesy of the Cyber Hymnal™
C:William Howard Doane
Z:Public Domain
Z:Courtesy of the Cyber Hymnal™
%%score 1 ( 2 3 )
L:1/8
Q:1/4=110
M:4/4
K:Ab
V:1 treble 
V:2 bass 
V:3 bass 
V:1
 [CA]>[DB] | [Ec]2 [Ec]2 [Ec]2 [EB]>[EA] | %2
w: 1.~In the|har- vest field there is|
w: 2.~Crowd the|gar- ner well with its|
w: 3.~In the|glean- er’s path may be|
w: 4.~Lo! the|Har- vest Home in the|
 [FB]2 [FA]2 [DF]2 [FA]>[DF] [CE]2 [CA]2 [EA]2 [DG]>[CA] | [EB]2 [Ec]2 [EB]2 [EA]>[EB] | %4
w: work to do, For the grain is ripe, and the|reap- ers few; And the|
w: sheaves all bright, Let the song be glad, and the|heart be light, Fill the|
w: rich re- ward, Tho’ the time seems long, and the|la- bor hard; For the|
w: realms a- bove Shall be gained by each who has|toiled and strove, When the|
 [Ec]2 [Ec]2 [Ec]2 [EB]>[EA] | [FB]2 [FA]2 [DF]2 [FA]>[DF] | [CE]2 [EA]>[EB] [Ec]2 [DB]2 | [CA]6 || %8
w: Mas- ter’s voice bids the|work- ers true Heed the|call that He gives to-|day.|
w: pre- cious hours ere the|shades of night Take the|place of the gold- en|day.|
w: Mas- ter’s joy, with His|chos- en shared, Drives the|gloom from the dark- est|day.|
w: Mas- ter’s voice, in His|words of love, Calls a-|way to e- ter- nal|day.|
"^Refrain" [CA]>[DB] | [Ec]6 [DB]>[CA] | [DF]6 [EG][EA] | [EB]2 [EB]2 [Ec]2 [EA]2 | %12
w: ||||
w: La- bor|on, la- bor|on, Keep the|bright re- ward in|
w: ||||
w: ||||
 [EB]6 [Ec]>[Ed] | [Ee]2 [Ec]>[Ec] [Ec]2 [EB]>[EA] | [FB]2 [FA]2 [DF]2 [FA]>[DF] | %15
w: |||
w: view, For the|Mas- ter has said He will|strength re- new; La- bor|
w: |||
w: |||
 [CE]2 [EA]>[EB] [Ec]2 [DB]2 | [CA]6 |] %17
w: ||
w: on till the close of|day.|
w: ||
w: ||
V:2
 [A,,A,]>[A,,A,] | [A,,A,]2 [A,,A,]2 [A,,A,]2 [B,,G,]>[B,,A,] | %2
w: ~ ~|~ ~ ~ ~ ~|
 [D,A,]2 [D,A,]2 [D,A,]2 [D,A,]>[D,A,] [A,,A,]2 [A,,A,]2 [C,A,]2 [B,,E,]>[A,,E,] | %3
w: ~ ~ ~ ~ ~ ~ ~ ~ ~ ~|
 [E,G,]2 [E,A,]2 [E,G,]2 [C,A,]>[E,G,] | A,2 [A,,A,]2 [A,,A,]2 [B,,G,]>[C,A,] | %5
w: ~ ~ ~ ~ ~|~ ~ ~ ~ ~|
 [D,A,]2 [D,A,]2 [D,A,]2 [D,A,]>[D,A,] | [E,A,]2 [E,C]>[E,G,] [E,A,]2 [E,G,]2 | [A,,A,]6 || z2 | %9
w: ~ ~ ~ ~ ~|~ ~ ~ ~ ~|~||
 z2 [A,,A,]>[A,,A,] [A,,A,]2 z2 | z2 [D,A,]>[D,A,] [D,A,]2 [D,B,][C,A,] | %11
w: La- bor on,|la- bor on * *|
 [B,,G,]2 [B,,G,]2 [A,,A,]2 [C,A,]2 | [E,G,]6 A,>[A,B,] | %13
w: ||
 [A,C]2 [A,,A,]>[A,,A,] [A,,A,]2 [B,,G,]>[C,A,] | [D,A,]2 [D,A,]2 [D,A,]2 [D,A,]>[D,A,] | %15
w: ||
 [E,A,]2 [E,C]>[E,G,] [E,A,]2 [E,G,]2 | [A,,A,]6 |] %17
w: ||
V:3
 x2 | x8 | x16 | x8 | A,2 x6 | x8 | x8 | x6 || x2 | x8 | x8 | x8 | x6 A,3/2 x/ | x8 | x8 | x8 | %16
 x6 |] %17

